X:1
T:Exeter (Jackson), 88.88.88
T:Exeter (Jackson), 88.88.88
T:William Jackson, 1793
T:Public Domain Courtesy of the Cyber Hymnal™
C:William Jackson, 1793
Z:Public Domain
Z:Courtesy of the Cyber Hymnal™
%%score ( 1 2 ) ( 3 4 )
L:1/8
Q:1/4=107
M:4/4
K:D
V:1 treble 
V:2 treble 
V:3 bass 
V:4 bass 
V:1
 [A,D]2 | [DF]2 [A,A]2 [A,F]2 ([B,E]D) | [EF]2 (FG) [DF]2 D2 | [DF]2 [EA]2 [Fd]3 [Ec] | %4
 [FB]2 (cd) [Ec]3 [EB] | [CA]2 [C^G][DF] E2 [A,F][FB] | [EA]2 [E^G]2 !fermata![EA]2 [EA]2 | %7
 [FA]2 ([DF]>[EG]) [FA]2 ([DF]>[EG]) | [FA]2 [FA]2 [EA]3 A | [Gd]2 [Gd]2 [Fd]2 (DE) | %10
 (F>G) (A>B) [DA]2 [DB]2 | [CE]2 [DA]2 D2 (EG) | [DF]2 [CE]2 D2 |] %13
V:2
 x2 | x7 D | x2 C2 x D2 x | x8 | x2 E2 x4 | x4 E2 x2 | x8 | x8 | x7 A | x6 D2 | D2 D2 x4 | %11
 x4 D2 D2 | x4 D2 |] %13
V:3
 [D,F,]2 | [D,A,]2 F,2 [D,F,]2 [B,,F,]2 | [G,,B,]2 [A,,A,]2 [D,A,]2 [D,F,]2 | %3
 [D,A,]2 [D,A,]2 [B,,F,]3 [B,,A,] | [D,A,]2 [E,^G,]2 A,3 [G,B,] | [F,C]2 A,2 [C,A,]2 [D,D]2 | %6
 [E,C]2 [E,B,]2 !fermata![A,,C]2 [A,C]2 | D2 [A,D]2 [F,D]2 [D,A,]2 | A,2 D2 [A,C]3 [F,D] | %9
 ([G,B,][A,C]) ([B,D][CE]) D2 [D,D]2 | A,2 ([F,A,]3/2 G,/) [F,A,]2 G,2 | %11
 [G,A,]2 [F,A,]2 [G,B,]2 (G,B,) | A,2 [A,,G,]2 [D,F,]2 |] %13
V:4
 x2 | x2 F,2 x4 | x8 | x8 | x4 A,3 x | x2 (E,D,) x4 | x8 | D2 x6 | (D,E,) (F,G,) x4 | x4 D2 x2 | %10
 (D,>E,) G,/ x3/2 G,2 x2 | x6 E,2 | A,2 x4 |] %13

